X:5420
T:Schottische
M:4/4
O:France
R:Schottische
Z:Richard Robinson 
%%TUNEURL: http://www.leeds.ac.uk/music/Info/RRTuneBk/gettune/00000b93.html
%%ID:00000b93
K:G
GFGA G2D2| AGAB A2D2| BABc B2AG|1 FGAc B2A2 :|2 FGAF G4 |:
GABc d3D| EFGA D2GF| EFGA BGAB|1 cBAG B2A2 :|2 cBAB G4 |]
